site/View/themes/default/assets/images/pg-icon.svg

<?xml version="1.0" encoding="UTF-8"?>
<svg width="51px" height="33px" viewBox="0 0 51 33" version="1.1" xmlns="http://www.w3.org/2000/svg" xmlns:xlink="http://www.w3.org/1999/xlink">
    <!-- Generator: Sketch 52.6 (67491) - http://www.bohemiancoding.com/sketch -->
    <title>Group</title>
    <desc>Created with Sketch.</desc>
    <g id="Page-1" stroke="none" stroke-width="1" fill="none" fill-rule="evenodd">
        <g id="Group" transform="translate(1.000000, -7.000000)">
            <path d="M11.6504217,17.5632635 L12.3246516,21.4082376 C12.3586079,21.6017316 12.2818796,21.7866045 12.1192808,21.90219 C11.9563555,22.0174562 11.7535968,22.0315053 11.5756523,21.9408249 L8.04451613,20.1249831 C7.87440776,20.037815 7.68699471,19.993752 7.50023466,19.993752 C7.31347461,19.993752 7.12638806,20.037815 6.95595319,20.1253024 L3.42546998,21.9408249 C3.24687253,22.0315053 3.0441138,22.0174562 2.88151502,21.90219 C2.71891624,21.7866045 2.6425144,21.6020508 2.67614427,21.4082376 L3.35037416,17.5632635 C3.41534837,17.1922404 3.28964449,16.8135542 3.01407547,16.5510921 L0.157169152,13.8278083 C0.013181073,13.6905106 -0.035794464,13.4970166 0.0265677197,13.3102279 C0.0886033999,13.1231199 0.244345607,12.9947625 0.443186287,12.966345 L4.39094107,12.4053403 C4.77197075,12.3513791 5.10141286,12.1176537 5.27152122,11.7798375 L7.03692608,8.28130063 C7.12573505,8.1050487 7.29910845,8 7.49990815,8 C7.70103436,8 7.87408126,8.1050487 7.96321673,8.28130063 L9.72862159,11.7798375 C9.89872995,12.1176537 10.2278456,12.3513791 10.6088752,12.4053403 L14.5569565,12.966345 C14.7557972,12.9947625 14.9115394,13.1231199 14.9735751,13.3102279 C15.0356108,13.4970166 14.9869617,13.6905106 14.8429737,13.8278083 L11.9863938,16.5507728 C11.7108248,16.8135542 11.5851209,17.1919211 11.6504217,17.5632635 Z" id="Shape" stroke="#FFFFFF" fill-rule="nonzero"></path>
            <rect id="Rectangle" stroke="#FFFFFF" x="19.5" y="9.5" width="12" height="12" rx="3"></rect>
            <rect id="Rectangle-Copy" stroke="#FFFFFF" x="37.5" y="9.5" width="12" height="12" rx="3"></rect>
            <rect id="Rectangle-Copy-2" stroke="#FFFFFF" x="19.5" y="27.5" width="12" height="12" rx="3"></rect>
            <rect id="Rectangle-Copy-3" stroke="#FFFFFF" x="1.5" y="27.5" width="12" height="12" rx="3"></rect>
            <rect id="Rectangle" x="1" y="0" width="50" height="50"></rect>
        </g>
    </g>
</svg>

<svg width="51" height="51" xmlns="http://www.w3.org/2000/svg"><g transform="translate(1 0)" fill="none" fill-rule="evenodd"><path d="M11.65 17.563l.675 3.845a.49.49 0 0 1-.206.494.518.518 0 0 1-.543.039l-3.531-1.816a1.195 1.195 0 0 0-1.089 0l-3.53 1.816a.519.519 0 0 1-.544-.039.491.491 0 0 1-.206-.494l.674-3.845c.065-.37-.06-.75-.336-1.012L.157 13.828a.504.504 0 0 1 .286-.861l3.948-.562c.381-.054.71-.287.88-.625L7.038 8.28A.508.508 0 0 1 7.5 8c.201 0 .374.105.463.281L9.73 11.78c.17.338.499.571.88.625l3.948.561a.504.504 0 0 1 .286.862l-2.857 2.723a1.128 1.128 0 0 0-.336 1.012z" stroke="#FFF"/><rect stroke="#FFF" x="19.5" y="9.5" width="12" height="12" rx="3"/><rect stroke="#FFF" x="37.5" y="9.5" width="12" height="12" rx="3"/><rect stroke="#FFF" x="19.5" y="27.5" width="12" height="12" rx="3"/><rect stroke="#FFF" x="1.5" y="27.5" width="12" height="12" rx="3"/><path d="M1 0h50v50H1z"/></g></svg>
